mediaLibTest/testData/TestColourLookup.cube
TITLE "Generated by Resolve"
LUT_3D_SIZE 5
0.0218357 0.0218357 0.0218357
0.149233 0.00761425 0.00761425
0.643687 0 0
1 0 0
1 0 0
0 0.134264 0
0.115572 0.115572 0
0.975769 0 0
1 0 0
1 0 0
0 0.620249 0
0 0.668833 0
0.562097 0.562081 0
1 0.498314 0
1 0.626368 0
0 1 0
0 1 0
0.363607 1 0
1 1 0
1 1 0
0 1 0
0 1 0
0.529458 1 0
1 1 0
1 1 0
0.016968 0.016968 0.137179
0.147158 0 0.147158
0.658396 0 0.00445563
1 0 0
1 0 0
0 0.126452 0.126452
0.106325 0.106325 0.106325
1 0 0
1 0 0
1 0 0
0 0.63003 0
0 0.79086 0
0.623514 0.623499 0
1 0.533059 0
1 0.659648 0
0 1 0
0 1 0
0.390082 1 0
1 1 0
1 1 0
0 1 0
0 1 0
0.521614 1 0
1 1 0
1 1 0
0 0 0.499107
0.0699626 0 0.598718
0.593194 0 0.593194
1 0 0.572778
1 0 0.672175
0 0.0539254 0.856489
0.0211795 0.0211795 1
1 0 1
1 0 0.857206
1 0 0.941909
0 0.566705 0.566705
0 0.723125 0.723125
0.560739 0.560739 0.560739
1 0.410163 0.410178
1 0.558648 0.558663
0 1 0.340078
0 1 0.434714
0.0999924 1 0.0999771
1 1 0
1 1 0.0962844
0 1 0.59173
0 1 0.598886
0.32578 1 0.32578
0.997711 1 0.100511
1 1 0.142565
0 0 0.829831
0.0334325 0 1
0.541054 0 1
1 0 1
1 0 1
0 0.00251774 1
0 0 1
0.916381 0 1
1 0 1
1 0 1
0 0.520226 1
0 0.622202 1
0.499016 0.499016 1
1 0.35729 1
1 0.47602 1
0 1 1
0 1 1
0.0344549 1 1
0.968521 0.968521 0.968521
1 0.959335 0.959335
0 1 1
0 1 1
0.211505 1 1
0.926665 1 0.926665
1 1 0.91133
0 0 0.930739
0.0328679 0 1
0.569604 0 1
1 0 1
1 0 1
0 0 1
0 0 1
0.954223 0 1
1 0 1
1 0 1
0 0.555917 1
0 0.666743 1
0.549264 0.549264 1
1 0.417472 1
1 0.520134 1
0 1 1
0 1 1
0.104494 1 1
0.964797 0.964797 1
1 0.954574 1
0 1 1
0 1 1
0.255238 1 1
0.920409 1 1
1 1 1
