mediaLibTest/testData/TestColourLookup.cube
TITLE "Generated by Resolve"
LUT_3D_SIZE 33
0.0218357 0.0218357 0.0218357
0.0310674 0.0214237 0.0214237
0.0421302 0.0213779 0.0213779
0.0535897 0.0207523 0.0207523
0.0667735 0.0199435 0.0199435
0.0821241 0.0184787 0.0184787
0.10042 0.016144 0.016144
0.122393 0.0127108 0.0127108
0.149233 0.00761425 0.00761425
0.184665 0.000518807 0.000518807
0.231418 0 0
0.294728 0 0
0.375891 0 0
0.48043 0 0
0.608835 0 0
0.675685 0 0
0.643687 0 0
0.757122 0 0
0.871656 0 0
0.984634 0 0
1 0 0
1 0 0
1 0 0
1 0 0
1 0 0
1 0 0
1 0 0
1 0 0
1 0 0
1 0 0
1 0 0
1 0 0
1 0 0
0.0211795 0.0315557 0.0211795
0.0315099 0.0315099 0.0208133
0.0422217 0.031342 0.0197757
0.0537118 0.0308995 0.0183261
0.0664378 0.0298161 0.0162509
0.0816968 0.0281071 0.0135805
0.100481 0.0255436 0.0100557
0.123369 0.0218204 0.00556954
0.151781 0.0165866 0
0.188327 0.00898756 0
0.236774 0 0
0.303639 0 0
0.389746 0 0
0.502464 0 0
0.641459 0 0
0.715877 0 0
0.677791 0 0
0.797879 0 0
0.922118 0 0
1 0 0
1 0 0
1 0 0
1 0 0
1 0 0
1 0 0
1 0 0
1 0 0
1 0 0
1 0 0
1 0 0
1 0 0
1 0 0
1 0 0
0.0186465 0.0423896 0.0186465
0.0299382 0.0414588 0.0176547
0.041001 0.041001 0.016144
0.0523842 0.0404669 0.014023
0.0652171 0.0395361 0.0112612
0.0806439 0.0378882 0.00769055
0.0993362 0.0349584 0.00296025
0.123079 0.0310369 0
0.152499 0.0255741 0
0.19089 0.0177462 0
0.24213 0.00650034 0
0.312093 0 0
0.40322 0 0
0.522805 0 0
0.673045 0 0
0.758999 0 0
0.715801 0 0
0.841489 0 0
0.973617 0 0
1 0 0
1 0 0
1 0 0
1 0 0
1 0 0
1 0 0
1 0 0
1 0 0
1 0 0
1 0 0
1 0 0
1 0 0
1 0 0
1 0 0
0.0135653 0.0530709 0.0135653
0.0264744 0.0519417 0.0124361
0.0385138 0.0510872 0.0106508
0.0500801 0.0500801 0.00807202
0.0630655 0.0491035 0.00483711
0.0786145 0.0474708 0.000610361
0.098146 0.0448005 0
0.122805 0.0407568 0
0.152895 0.0348669 0
0.19292 0.0267796 0
0.246601 0.0151217 0
0.321263 0 0
0.418677 0 0
0.544991 0 0
0.706355 0 0
0.80293 0 0
0.755398 0 0
0.890608 0 0
1 0 0
1 0 0
1 0 0
1 0 0
1 0 0
1 0 0
1 0 0
1 0 0
1 0 0
1 0 0
1 0 0
1 0 0
1 0 0
1 0 0
1 0 0
0.00585946 0.0644388 0.00585946
0.0201419 0.0629129 0.0043183
0.0334478 0.061738 0.00231937
0.0461433 0.0608072 0
0.0596475 0.0596475 0
0.0753948 0.0578012 0
0.0953841 0.0551919 0
0.120912 0.0511482 0
0.152926 0.0453956 0
0.194888 0.0370947 0
0.250584 0.0248417 0
0.329503 0.0068513 0
0.433188 0 0
0.568963 0 0
0.741894 0 0
0.850446 0 0
0.798321 0 0
0.94374 0 0
1 0 0
1 0 0
1 0 0
1 0 0
1 0 0
1 0 0
1 0 0
1 0 0
1 0 0
1 0 0
1 0 0
1 0 0
1 0 0
1 0 0
1 0 0
0 0.0776074 0
0.0103151 0.0754864 0
0.0249485 0.0740063 0
0.0388037 0.0729076 0
0.0533303 0.0717479 0
0.0701305 0.0701305 0
0.0908217 0.0674907 0
0.117037 0.0632639 0
0.150515 0.057496 0
0.194476 0.049073 0
0.253803 0.0367132 0
0.336507 0.0178225 0
0.446998 0 0
0.591928 0 0
0.778881 0 0
0.901015 0 0
0.844007 0 0
0.997986 0 0
1 0 0
1 0 0
1 0 0
1 0 0
1 0 0
1 0 0
1 0 0
1 0 0
1 0 0
1 0 0
1 0 0
1 0 0
1 0 0
1 0 0
1 0 0
0 0.0926528 0
0 0.0908064 0
0.01178 0.0892653 0
0.0267948 0.0877546 0
0.0425269 0.0865034 0
0.0604715 0.0848707 0
0.0823682 0.0823682 0
0.10985 0.078233 0
0.144839 0.0723888 0
0.190936 0.0639353 0
0.253223 0.0513771 0
0.340673 0.0318761 0
0.458351 0.00466926 0
0.613153 0 0
0.814755 0 0
0.953201 0 0
0.890867 0 0
1 0 0
1 0 0
1 0 0
1 0 0
1 0 0
1 0 0
1 0 0
1 0 0
1 0 0
1 0 0
1 0 0
1 0 0
1 0 0
1 0 0
1 0 0
1 0 0
0 0.110887 0
0 0.109163 0
0 0.107744 0
0.00842298 0.106661 0
0.0252995 0.105165 0
0.0446326 0.103593 0
0.0679637 0.101122 0
0.0972152 0.0972152 0
0.133928 0.0913252 0
0.182269 0.0829175 0
0.247562 0.0702678 0
0.339727 0.0502785 0
0.464714 0.0219272 0
0.629831 0 0
0.847013 0 0
1 0 0
0.934798 0 0
1 0 0
1 0 0
1 0 0
1 0 0
1 0 0
1 0 0
1 0 0
1 0 0
1 0 0
1 0 0
1 0 0
1 0 0
1 0 0
1 0 0
1 0 0
1 0 0
0 0.134264 0
0 0.132235 0
0 0.130999 0
0 0.130114 0
0 0.128832 0
0.0205234 0.127459 0
0.0454871 0.12517 0
0.0764782 0.121126 0
0.115572 0.115572 0
0.166415 0.10724 0
0.234348 0.0943618 0
0.331441 0.0743114 0
0.463478 0.0449836 0
0.637949 0.00370794 0
0.871717 0 0
1 0 0
0.975769 0 0
1 0 0
1 0 0
1 0 0
1 0 0
1 0 0
1 0 0
1 0 0
1 0 0
1 0 0
1 0 0
1 0 0
1 0 0
1 0 0
1 0 0
1 0 0
1 0 0
0 0.164248 0
0 0.162417 0
0 0.16144 0
0 0.160891 0
0 0.159899 0
0 0.158831 0
0.0103304 0.156741 0
0.0436561 0.152804 0
0.0853742 0.147356 0
0.138811 0.138811 0
0.210239 0.126146 0
0.311452 0.105959 0
0.449317 0.0758068 0
0.634256 0.0330968 0
0.882383 0 0
1 0 0
1 0 0
1 0 0
1 0 0
1 0 0
1 0 0
1 0 0
1 0 0
1 0 0
1 0 0
1 0 0
1 0 0
1 0 0
1 0 0
1 0 0
1 0 0
1 0 0
1 0 0
0 0.204013 0
0 0.202686 0
0 0.202167 0
0 0.202106 0
0 0.201556 0
0 0.20087 0
0 0.198672 0
0 0.195254 0
0.0361944 0.189471 0
0.0933547 0.181216 0
0.168307 0.168307 0
0.273777 0.148241 0
0.417334 0.117845 0
0.611566 0.0742504 0
0.873259 0.0121004 0
1 0 0
1 0 0
1 0 0
1 0 0
1 0 0
1 0 0
1 0 0
1 0 0
1 0 0
1 0 0
1 0 0
1 0 0
1 0 0
1 0 0
1 0 0
1 0 0
1 0 0
1 0 0
0 0.257786 0
0 0.25774 0
0 0.258061 0
0 0.25832 0
0 0.258991 0
0 0.258518 0
0 0.257282 0
0 0.253849 0
0 0.248707 0
0.0170443 0.240146 0
0.0968795 0.227268 0
0.207263 0.207263 0
0.356115 0.177035 0
0.557092 0.132982 0
0.829084 0.0699016 0
1 0.00967422 0
1 0 0
1 0 0
1 0 0
1 0 0
1 0 0
1 0 0
1 0 0
1 0 0
1 0 0
1 0 0
1 0 0
1 0 0
1 0 0
1 0 0
1 0 0
1 0 0
1 0 0
0 0.328588 0
0 0.329473 0
0 0.3308 0
0 0.332494 0
0 0.334325 0
0 0.335195 0
0 0.335103 0
0 0.332677 0
0 0.327947 0
0 0.320241 0
0 0.307485 0
0.103166 0.287068 0
0.256977 0.256977 0
0.462486 0.213443 0
0.738323 0.150958 0
1 0.0875715 0
1 0.0594492 0
1 0.0484169 0
1 0.0109255 0
1 0 0
1 0 0
1 0 0
1 0 0
1 0 0
1 0 0
1 0 0
1 0 0
1 0.0148013 0
1 0.0318761 0
1 0.0500649 0
1 0.0687419 0
1 0.0875563 0
1 0.106126 0
0 0.421546 0
0 0.424216 0
0 0.42678 0
0 0.430381 0
0 0.433417 0
0 0.435706 0
0 0.436576 0
0 0.435645 0
0 0.431693 0
0 0.42414 0
0 0.411627 0
0 0.391226 0
0.111833 0.361608 0
0.319341 0.319341 0
0.595773 0.258228 0
0.871168 0.192493 0
1 0.151736 0
1 0.137407 0
1 0.103105 0
1 0.0741283 0
1 0.0584573 0
1 0.0555123 0
1 0.059968 0
1 0.069276 0
1 0.0820478 0
1 0.0967269 0
1 0.112978 0
1 0.130617 0
1 0.149111 0
1 0.16817 0
1 0.187045 0
1 0.206012 0
1 0.224613 0
0 0.536873 0
0 0.542763 0
0 0.54818 0
0 0.553643 0
0 0.558663 0
0 0.562615 0
0 0.564767 0
0 0.564141 0
0 0.560678 0
0 0.553872 0
0 0.542885 0
0 0.524697 0
0 0.497322 0
0.119615 0.45713 0
0.397711 0.397696 0
0.684031 0.330236 0
0.871595 0.280003 0
0.994415 0.254688 0
1 0.223575 0
1 0.197238 0
1 0.184161 0
1 0.18349 0
1 0.189883 0
1 0.200778 0
1 0.214557 0
1 0.230274 0
1 0.247318 0
1 0.265187 0
1 0.283238 0
1 0.301671 0
1 0.319783 0
1 0.33724 0
1 0.354131 0
0 0.614542 0
0 0.623316 0
0 0.631235 0
0 0.638682 0
0 0.645258 0
0 0.651164 0
0 0.656641 0
0 0.661311 0
0 0.664454 0
0 0.665705 0
0 0.663218 0
0 0.654459 0
0 0.635752 0
0 0.60235 0
0.19382 0.547402 0
0.482765 0.482765 0
0.679973 0.421256 0
0.879454 0.390997 0
1 0.36199 0
1 0.337407 0
1 0.325765 0
1 0.326116 0
1 0.332967 0
1 0.344198 0
1 0.35819 0
1 0.373419 0
1 0.389487 0
1 0.405737 0
1 0.422263 0
1 0.439094 0
1 0.456489 0
1 0.474022 0
1 0.491493 0
0 0.620249 0
0 0.624689 0
0 0.629862 0
0 0.635706 0
0 0.642466 0
0 0.649485 0
0 0.656123 0
0 0.662837 0
0 0.668833 0
0 0.684398 0
0 0.703365 0
0 0.718425 0
0 0.722866 0
0 0.708415 0
0.0742962 0.664332 0
0.339727 0.597818 0
0.562097 0.562081 0
0.765713 0.533394 0
0.967483 0.505211 0
1 0.481071 0
1 0.469398 0
1 0.469505 0
1 0.475898 0
1 0.485954 0
1 0.498314 0
1 0.511589 0
1 0.526116 0
1 0.542062 0
1 0.558877 0
1 0.576043 0
1 0.593332 0
1 0.609934 0
1 0.626368 0
0 0.722911 0
0 0.729351 0
0 0.736584 0
0 0.745357 0
0 0.754955 0
0 0.765438 0
0 0.775677 0
0 0.785489 0
0 0.794476 0
0 0.801953 0
0 0.806928 0
0 0.807462 0
0 0.802274 0
0 0.788724 0
0.0298772 0.7635 0
0.247105 0.731075 0
0.467063 0.697658 0
0.668513 0.668498 0
0.867338 0.639872 0
1 0.615167 0
1 0.602518 0
1 0.600992 0
1 0.605615 0
1 0.614725 0
1 0.626764 0
1 0.64036 0
1 0.655329 0
1 0.670985 0
1 0.687022 0
1 0.702754 0
1 0.718425 0
1 0.733272 0
1 0.747173 0
0 0.833021 0
0 0.84271 0
0 0.853483 0
0 0.865538 0
0 0.878355 0
0 0.891356 0
0 0.904036 0
0 0.915831 0
0 0.92639 0
0 0.93492 0
0 0.940368 0
0 0.940856 0
0 0.935393 0
0 0.921508 0
0 0.895476 0
0.157794 0.86183 0
0.374762 0.827359 0
0.572747 0.797177 0
0.767132 0.767117 0
0.945144 0.741375 0
1 0.728405 0
1 0.727153 0
1 0.732311 0
1 0.741268 0
1 0.752972 0
1 0.765896 0
1 0.779553 0
1 0.793347 0
1 0.807172 0
1 0.82034 0
1 0.832319 0
1 0.843046 0
1 0.852399 0
0 0.949035 0
0 0.961486 0
0 0.975036 0
0 0.989059 0
0 1 0
0 1 0
0 1 0
0 1 0
0 1 0
0 1 0
0 1 0
0 1 0
0 1 0
0 1 0
0 1 0
0.0840467 0.978821 0
0.297261 0.943679 0
0.492302 0.913619 0
0.684276 0.884596 0
0.859876 0.859876 0
0.989654 0.847272 0
1 0.845548 0
1 0.850004 0
1 0.857923 0
1 0.867933 0
1 0.878492 0
1 0.889052 0
1 0.899382 0
1 0.909087 0
1 0.917967 0
1 0.925719 0
1 0.93228 0
1 0.937942 0
0 1 0
0 1 0
0 1 0
0 1 0
0 1 0
0 1 0
0 1 0
0 1 0
0 1 0
0 1 0
0 1 0
0 1 0
0 1 0
0 1 0
0 1 0
0.0574807 1 0
0.267643 1 0
0.459266 1 0
0.646952 0.982986 0
0.818448 0.958221 0
0.945006 0.944991 0
1 0.942077 0
1 0.944488 0
1 0.94934 0
1 0.955825 0
1 0.962264 0
1 0.968658 0
1 0.974502 0
1 0.980056 0
1 0.984771 0
1 0.988983 0
1 0.992538 0
1 0.995453 0
0 1 0
0 1 0
0 1 0
0 1 0
0 1 0
0 1 0
0 1 0
0 1 0
0 1 0
0 1 0
0 1 0
0 1 0
0 1 0
0 1 0
0 1 0
0.072694 1 0
0.277165 1 0
0.463462 1 0
0.645731 1 0
0.811322 1 0
0.932479 1 0
1 1 0
1 1 0
1 1 0
1 1 0
1 1 0
1 1 0
1 1 0
1 1 0
1 1 0
1 1 0
1 1 0
1 1 0
0 1 0
0 1 0
0 1 0
0 1 0
0 1 0
0 1 0
0 1 0
0 1 0
0 1 0
0 1 0
0 1 0
0 1 0
0 1 0
0 1 0
0 1 0
0.104524 1 0
0.301579 1 0
0.480247 1 0
0.65478 1 0
0.813672 1 0
0.928695 1 0
1 1 0
1 1 0
1 1 0
1 1 0
1 1 0
1 1 0
1 1 0
1 1 0
1 1 0
1 1 0
1 1 0
1 1 0
0 1 0
0 1 0
0 1 0
0 1 0
0 1 0
0 1 0
0 1 0
0 1 0
0 1 0
0 1 0
0 1 0
0 1 0
0 1 0
0 1 0
0 1 0
0.136477 1 0
0.327901 1 0
0.501091 1 0
0.669429 1 0
0.819959 1 0
0.927565 1 0
0.996292 1 0
1 1 0
1 1 0
1 1 0
1 1 0
1 1 0
1 1 0
1 1 0
1 1 0
1 1 0
1 1 0
1 1 0
0 1 0
0 1 0
0 1 0
0 1 0
0 1 0
0 1 0
0 1 0
0 1 0
0 1 0
0 1 0
0 1 0
0 1 0
0 1 0
0 1 0
0 1 0
0.179294 1 0
0.363607 1 0
0.528405 1 0
0.687419 1 0
0.829129 1 0
0.929702 1 0
0.993576 1 0
1 1 0
1 1 0
1 1 0
1 1 0
1 1 0
1 1 0
1 1 0
1 1 0
1 1 0
1 1 0
1 1 0
0 1 0
0 1 0
0 1 0
0 1 0
0 1 0
0 1 0
0 1 0
0 1 0
0 1 0
0 1 0
0 1 0
0 1 0
0 1 0
0 1 0
0.0500191 1 0
0.227481 1 0
0.401846 1 0
0.557015 1 0
0.706035 1 0
0.838712 1 0
0.932815 1 0
0.992508 1 0
1 1 0
1 1 0
1 1 0
1 1 0
1 1 0
1 1 0
1 1 0
1 1 0
1 1 0
1 1 0
1 1 0
0 1 0
0 1 0
0 1 0
0 1 0
0 1 0
0 1 0
0 1 0
0 1 0
0 1 0
0 1 0
0 1 0
0 1 0
0 1 0
0 1 0
0.107851 1 0
0.274342 1 0
0.437598 1 0
0.58323 1 0
0.722789 1 0
0.847517 1 0
0.936233 1 0
0.992798 1 0
1 1 0
1 1 0
1 1 0
1 1 0
1 1 0
1 1 0
1 1 0
1 1 0
1 1 0
1 1 0
1 1 0
0 1 0
0 1 0
0 1 0
0 1 0
0 1 0
0 1 0
0 1 0
0 1 0
0 1 0
