mediaLibTest/testData/TestColourLookup.cube
TITLE "Generated by Resolve"
LUT_3D_SIZE 9
0.0218357 0.0218357 0.0218357
0.0667735 0.0199435 0.0199435
0.149233 0.00761425 0.00761425
0.375891 0 0
0.643687 0 0
1 0 0
1 0 0
1 0 0
1 0 0
0.00585946 0.0644388 0.00585946
0.0596475 0.0596475 0
0.152926 0.0453956 0
0.433188 0 0
0.798321 0 0
1 0 0
1 0 0
1 0 0
1 0 0
0 0.134264 0
0 0.128832 0
0.115572 0.115572 0
0.463478 0.0449836 0
0.975769 0 0
1 0 0
1 0 0
1 0 0
1 0 0
0 0.328588 0
0 0.334325 0
0 0.327947 0
0.256977 0.256977 0
1 0.0594492 0
1 0 0
1 0 0
1 0.0318761 0
1 0.106126 0
0 0.620249 0
0 0.642466 0
0 0.668833 0
0 0.722866 0
0.562097 0.562081 0
1 0.469398 0
1 0.498314 0
1 0.558877 0
1 0.626368 0
0 1 0
0 1 0
0 1 0
0 1 0
0.267643 1 0
0.945006 0.944991 0
1 0.955825 0
1 0.980056 0
1 0.995453 0
0 1 0
0 1 0
0 1 0
0 1 0
0.363607 1 0
0.929702 1 0
1 1 0
1 1 0
1 1 0
0 1 0
0 1 0
0 1 0
0 1 0
0.491066 1 0
0.942321 1 0
1 1 0
1 1 0
1 1 0
0 1 0
0 1 0
0 1 0
0.0901045 1 0
0.529458 1 0
0.943267 1 0
1 1 0
1 1 0
1 1 0
0.0205692 0.0205692 0.0634012
0.0665904 0.0183566 0.0665904
0.147875 0.00502022 0.0641337
0.377508 0 0.0227359
0.653361 0 0
1 0 0
1 0 0
1 0 0
1 0 0
0.00250248 0.0623026 0.0623026
0.0567941 0.0567941 0.0567941
0.147555 0.0426184 0.0426184
0.435248 0 0
0.811749 0 0
1 0 0
1 0 0
1 0 0
1 0 0
0 0.130861 0.00881972
0 0.124956 0
0.11223 0.11223 0
0.463584 0.0404974 0
1 0 0
1 0 0
1 0 0
1 0 0
1 0 0
0 0.328954 0
0 0.334447 0
0 0.327596 0
0.258076 0.258076 0
1 0.0463569 0
1 0 0
1 0 0
1 0.0529946 0
1 0.128618 0
0 0.626062 0
0 0.651774 0
0 0.726024 0
0 0.77644 0
0.582559 0.582544 0
1 0.489937 0
1 0.516808 0
1 0.578729 0
1 0.644953 0
0 1 0
0 1 0
0 1 0
0 1 0
0.290562 1 0
0.959564 0.959564 0
1 0.964706 0
1 0.983413 0
1 0.996185 0
0 1 0
0 1 0
0 1 0
0 1 0
0.378622 1 0
0.931517 1 0
1 1 0
1 1 0
1 1 0
0 1 0
0 1 0
0 1 0
0 1 0
0.494911 1 0
0.940703 1 0
1 1 0
1 1 0
1 1 0
0 1 0
0 1 0
0 1 0
0.0907149 1 0
0.526513 1 0
0.940063 1 0
1 1 0
1 1 0
1 1 0
0.016968 0.016968 0.137179
0.0675669 0.012665 0.145357
0.147158 0 0.147158
0.376791 0 0.119478
0.658396 0 0.00445563
1 0 0
1 0 0
1 0 0
1 0 0
0 0.0586404 0.154376
0.0514229 0.0514229 0.150256
0.143069 0.0363928 0.143069
0.43125 0 0.100755
0.911681 0 0
1 0 0
1 0 0
1 0 0
1 0 0
0 0.126452 0.126452
0 0.119844 0.119844
0.106325 0.106325 0.106325
0.454704 0.0337072 0.0337072
1 0 0
1 0 0
1 0 0
1 0 0
1 0 0
0 0.325582 0
0 0.329732 0
0 0.321065 0
0.254215 0.254215 0
1 0.0347448 0
1 0 0
1 0.00535592 0
1 0.0717632 0
1 0.14815 0
0 0.63003 0
0 0.704234 0
0 0.79086 0
0 0.814817 0
0.623514 0.623499 0
1 0.506874 0
1 0.533059 0
1 0.595636 0
1 0.659648 0
0 1 0
0 1 0
0 1 0
0 1 0
0.310216 1 0
0.969604 0.969589 0
1 0.968978 0
1 0.983246 0
1 0.994263 0
0 1 0
0 1 0
0 1 0
0 1 0
0.390082 1 0
0.930312 1 0
1 1 0
1 1 0
1 1 0
0 1 0
0 1 0
0 1 0
0 1 0
0.495399 1 0
0.937026 1 0
1 1 0
1 1 0
1 1 0
0 1 0
0 1 0
0 1 0
0.086183 1 0
0.521614 1 0
0.93492 1 0
1 1 0
1 1 0
1 1 0
0.00263981 0.00263981 0.32987
0.055848 0 0.358404
0.140169 0 0.377295
0.360693 0 0.360693
0.758709 0 0.191836
1 0 0.0844587
1 0 0.0616922
1 0 0.0595865
1 0 0.0619211
0 0.0404517 0.412985
0.0301213 0.0301213 0.431418
0.133486 0.0104219 0.441032
0.415412 0 0.415427
1 0 0.224155
1 0 0.0778515
1 0 0.0480049
1 0 0.0471962
1 0 0.0561227
0 0.107317 0.455497
0 0.0993362 0.473625
0.0810101 0.0810254 0.477195
0.433921 0.00563058 0.433921
1 0 0.213107
1 0 0.0530251
1 0 0.0330053
1 0 0.0606241
1 0 0.108248
0 0.300908 0.300908
0 0.305348 0.305348
0 0.295888 0.295872
0.230106 0.230106 0.230106
1 0 0
1 0 0
1 0.00701915 0.00701915
1 0.0755016 0.0755169
1 0.152178 0.152178
0 0.687968 0
0 0.763668 0
0 0.826169 0
0 0.843397 0
0.636408 0.636408 0
1 0.50782 0
1 0.535149 0
1 0.597803 0
1 0.658457 0
0 1 0
0 1 0
0 1 0
0 1 0
0.314656 1 0
0.964279 0.964263 0
1 0.958267 0
1 0.970031 0
1 0.980209 0
0 1 0
0 1 0
0 1 0
0 1 0
0.386404 1 0
0.917067 1 0
1 1 0
1 1 0
1 1 0
0 1 0
0 1 0
0 1 0
0 1 0
0.482826 1 0
0.922438 1 0
1 1 0
1 1 0
1 1 0
0 1 0.0528267
0 1 0.0798352
0 1 0.0937972
0.0713359 1 0.0713359
0.506386 1 0
0.919554 1 0
1 1 0
1 1 0
1 1 0
0 0 0.499107
0.0186465 0 0.552407
0.0699626 0 0.598718
0.234607 0 0.734813
0.593194 0 0.593194
1 0 0.5514
1 0 0.572778
1 0 0.618662
1 0 0.672175
0 0.00988785 0.671397
0.00387579 0.00389105 0.725002
0.0696269 0 0.863996
0.299825 0 1
0.765209 0 0.765209
1 0 0.709117
1 0 0.734905
1 0 0.789029
1 0 0.847837
0 0.0539254 0.856489
0 0.045304 1
0.0211795 0.0211795 1
0.336843 0 1
1 0 1
1 0 0.858976
1 0 0.857206
1 0 0.888945
1 0 0.941909
0 0.195148 1
0 0.207065 1
0 0.206485 1
0.140734 0.140734 1
1 0 1
1 0 0.816236
1 0 0.841718
1 0.0364385 0.903029
1 0.112886 0.963073
0 0.566705 0.566705
0 0.607233 0.607233
0 0.723125 0.723125
0 0.766781 0.766766
0.560739 0.560739 0.560739
1 0.370199 0.370214
1 0.410163 0.410178
1 0.486213 0.486213
1 0.558648 0.558663
0 1 0.223224
0 1 0.28893
0 1 0.343664
0 1 0.363455
0 1 0
0.948486 0.948486 0
1 0.912886 0
1 0.918395 0
1 0.926604 0.0539864
0 1 0.340078
0 1 0.399741
0 1 0.434714
0 1 0.431434
0.0999924 1 0.0999771
0.828458 1 0
1 1 0
1 1 0.0525063
1 1 0.0962844
0 1 0.498314
0 1 0.529015
0 1 0.546777
0 1 0.529335
0.252689 1 0.252689
0.827955 1 0.0575113
1 1 0.090013
1 1 0.112184
1 1 0.129564
0 1 0.59173
0 1 0.599954
0 1 0.598886
0.0208133 1 0.569512
0.32578 1 0.32578
0.821637 1 0.0928664
0.997711 1 0.100511
1 1 0.117952
1 1 0.142565
0 0 0.742214
0 0 0.823117
0.0401923 0 0.899031
0.167803 0 0.959289
0.543679 0 0.970535
0.975738 0 0.975738
1 0 1
1 0 1
1 0 1
0 0 1
0 0 1
0.0319829 0 1
0.204456 0 1
0.718883 0 1
1 0 1
1 0 1
1 0 1
1 0 1
0 0.0131685 1
0 0.00627146 1
0 0 1
0.227146 0 1
0.911025 0 1
1 0 1
1 0 1
1 0 1
1 0 1
0 0.13489 1
0 0.143938 1
0 0.15108 1
0.126604 0.126619 1
0.879881 0.00047303 1
1 0 1
1 0 1
1 0.00105287 1
1 0.0767681 1
0 0.519219 1
0 0.565087 1
0 0.614298 1
0 0.626154 1
0.489509 0.489525 1
1 0.301579 1
1 0.329824 1
1 0.401556 1
1 0.461387 1
0 1 1
0 1 1
0 1 1
0 1 1
0 1 1
0.874998 0.874998 0.874998
1 0.843748 0.843748
1 0.847852 0.847852
1 0.855009 0.855024
0 1 1
0 1 1
0 1 1
0 1 1
0 1 0.938094
0.76611 1 0.766094
0.985061 0.985061 0.73286
1 0.976913 0.727642
1 0.973556 0.727306
0 1 1
0 1 1
0 1 1
0 1 1
0.120729 1 0.92256
0.75552 1 0.75552
0.954879 1 0.719783
1 1 0.709392
1 1 0.701106
0 1 1
0 1 1
0 1 1
0 1 1
0.185 1 0.914611
0.741741 1 0.741726
0.934462 1 0.700313
0.999084 1 0.685603
1 1 0.676707
0 0 0.829831
0 0 0.921355
0.0334325 0 1
0.161868 0 1
0.541054 0 1
0.979767 0 1
1 0 1
1 0 1
1 0 1
0 0 1
0 0 1
0.0229038 0 1
0.198215 0 1
0.722438 0 1
1 0 1
1 0 1
1 0 1
1 0 1
0 0.00251774 1
0 0 1
0 0 1
0.21973 0 1
0.916381 0 1
1 0 1
1 0 1
1 0 1
1 0 1
0 0.125505 1
0 0.135698 1
0 0.145663 1
0.125322 0.125322 1
0.883848 0.00463874 1
1 0 1
1 0 1
1 0.0115816 1
1 0.0873579 1
0 0.520226 1
0 0.570611 1
0 0.622202 1
0 0.634043 1
0.499016 0.499016 1
1 0.319799 1
1 0.35729 1
1 0.424018 1
1 0.47602 1
0 1 1
0 1 1
0 1 1
0 1 1
0 1 1
0.86331 0.86331 1
1 0.830289 1
1 0.834058 1
1 0.84062 1
0 1 1
0 1 1
0 1 1
0 1 1
0.0344549 1 1
0.752041 1 1
0.968521 0.968521 0.968521
1 0.963073 0.963073
1 0.959335 0.959335
0 1 1
0 1 1
0 1 1
0 1 1
0.155764 1 1
0.742412 1 0.982055
0.947265 1 0.947265
1 1 0.939467
1 0.997971 0.930602
0 1 1
0 1 1
0 1 1
0 1 1
0.211505 1 1
0.728695 1 0.96286
0.926665 1 0.926665
0.985672 1 0.918288
1 1 0.91133
0 0 0.883085
0 0 0.973678
0.0326848 0 1
0.16434 0 1
0.553841 0 1
1 0 1
1 0 1
1 0 1
1 0 1
0 0 1
0 0 1
0.0212406 0 1
0.201587 0 1
0.742443 0 1
1 0 1
1 0 1
1 0 1
1 0 1
0 0.000350958 1
0 0 1
0 0 1
0.224735 0 1
0.934966 0 1
1 0 1
1 0 1
1 0 1
1 0 1
0 0.128573 1
0 0.141085 1
0 0.154528 1
0.139406 0.139406 1
0.902602 0.0237888 1
1 0 1
1 0 1
1 0.0346838 1
1 0.111711 1
0 0.536278 1
0 0.590692 1
0 0.643442 1
0 0.654353 1
0.522087 0.522103 1
1 0.351904 1
1 0.388312 1
1 0.4486 1
1 0.496925 1
0 1 1
0 1 1
0 1 1
0 1 1
0 1 1
0.865614 0.865614 1
1 0.830076 1
1 0.832807 1
1 0.838743 1
0 1 1
0 1 1
0 1 1
0 1 1
0.0729076 1 1
0.746929 1 1
0.966232 0.966232 1
1 0.960327 1
1 0.956664 1
0 1 1
0 1 1
0 1 1
0 1 1
0.179782 1 1
0.736156 1 1
0.943984 1 1
0.999176 0.999176 0.999176
1 0.995224 0.995224
0 1 1
0 1 1
0 1 1
0 1 1
0.232227 1 1
0.721691 1 1
0.924437 1 0.991821
0.985885 1 0.985885
1 1 0.982528
0 0 0.930739
0 0 1
0.0328679 0 1
0.168124 0 1
0.569604 0 1
1 0 1
1 0 1
1 0 1
1 0 1
0 0 1
0 0 1
0.021088 0 1
0.207431 0 1
0.764035 0 1
1 0 1
1 0 1
1 0 1
1 0 1
0 0 1
0 0 1
0 0 1
0.232303 0 1
0.954223 0 1
1 0 1
1 0 1
1 0 1
1 0 1
0 0.134386 1
0 0.149508 1
0 0.16701 1
0.157595 0.15761 1
0.924315 0.0461128 1
1 0 1
1 0 1
1 0.0596475 1
1 0.138506 1
0 0.555917 1
0 0.613489 1
0 0.666743 1
0 0.675975 1
0.549264 0.549264 1
1 0.383871 1
1 0.417472 1
1 0.472175 1
1 0.520134 1
0 1 1
0 1 1
0 1 1
0 1 1
0.0357061 1 1
0.869841 0.869841 1
1 0.832334 1
1 0.833906 1
1 0.838788 1
0 1 1
0 1 1
0 1 1
0 1 1
0.104494 1 1
0.745144 1 1
0.964797 0.964797 1
1 0.957977 1
1 0.954574 1
0 1 1
0 1 1
0 1 1
0 1 1
0.203174 1 1
0.732341 1 1
0.93872 1 1
0.997421 0.997421 1
1 0.9935 1
0 1 1
0 1 1
0 1 1
0 1 1
0.255238 1 1
0.716777 1 1
0.920409 1 1
0.98436 1 1
1 1 1
